icons/ionicons/filled/desktop.svg

<svg xmlns="http://www.w3.org/2000/svg" viewBox="0 0 512 512" width="20" height="20"><path d="M16 352a48.05 48.05 0 0048 48h133.88l-4 32H144a16 16 0 000 32h224a16 16 0 000-32h-49.88l-4-32H448a48.05 48.05 0 0048-48v-48H16zm240-16a16 16 0 11-16 16 16 16 0 0116-16zM496 96a48.05 48.05 0 00-48-48H64a48.05 48.05 0 00-48 48v192h480z"/></svg>

<svg xmlns="http://www.w3.org/2000/svg" width="512" height="512" viewBox="0 0 512 512"><title>ionicons-v5-h</title><path d="M16,352a48.05,48.05,0,0,0,48,48H197.88l-4,32H144a16,16,0,0,0,0,32H368a16,16,0,0,0,0-32H318.12l-4-32H448a48.05,48.05,0,0,0,48-48V304H16Zm240-16a16,16,0,1,1-16,16A16,16,0,0,1,256,336Z"/><path d="M496,96a48.05,48.05,0,0,0-48-48H64A48.05,48.05,0,0,0,16,96V288H496Z"/></svg>
